lib/brands/icons/waze.svg

<svg xmlns="http://www.w3.org/2000/svg" fill="none" aria-hidden="true" viewBox="0 0 48 48"><g id="waze-Icon"><g id="Group"><path id="Vector" fill="white" d="M25.8226 36.5768H22.1417C21.7356 34.5333 19.9017 32.9614 17.7404 32.9614C16.1423 32.9614 14.7537 33.7866 13.9416 35.0049V35.0442C12.6055 34.3761 11.3742 33.4461 10.3262 32.3588C9.0556 31.0882 8.34824 29.9355 8.06006 29.1888C8.88531 29.0054 9.61886 28.5601 10.2214 27.9182C11.0074 27.093 11.4135 25.9795 11.4135 24.8661V22.1808C11.4135 19.0108 12.4614 15.88 14.4263 13.3912C17.2164 9.81513 21.3557 7.79785 25.8226 7.79785C29.6606 7.79785 33.276 9.29116 36.0006 12.0027C38.7253 14.7273 40.2055 18.3427 40.2055 22.1808C40.2055 26.0188 38.7122 29.6342 36.0006 32.3588C33.3022 35.0573 29.6475 36.5768 25.8226 36.5768V36.5768Z"/><path id="Vector_2" fill="black" d="M41.9999 22.1677C41.9999 17.845 40.3232 13.7842 37.2711 10.7321C34.2321 7.71929 30.119 6.0164 25.8355 6.0033C20.884 6.0033 16.26 8.24326 13.09 12.2254C10.8108 15.0941 9.61873 18.6309 9.61873 22.2856V24.8792C9.61873 26.2284 8.68869 27.486 6.82861 27.6039C6.38323 27.6432 6.00336 27.9444 6.00336 28.3898C5.92476 29.6211 7.23468 31.8611 9.01617 33.6426C10.2475 34.9132 11.7015 35.9218 13.2603 36.6947C13.0245 38.0046 13.3782 39.3538 14.2427 40.3756C15.0942 41.3973 16.3648 41.9868 17.7009 41.9868C19.9016 41.9868 21.6831 40.4542 22.1023 38.4107H25.8617C26.3464 40.9519 28.9924 42.6941 31.8219 41.7248C34.2845 40.8995 35.3586 38.1094 34.4679 35.8301C35.4372 35.2014 36.3673 34.4547 37.2187 33.6295C40.297 30.6036 42.013 26.4773 41.9999 22.1677ZM25.8224 36.5768H22.1416C21.7355 34.5333 19.9016 32.9614 17.7402 32.9614C16.1421 32.9614 14.7536 33.7867 13.9415 35.0049V35.0442C12.6053 34.3761 11.374 33.4461 10.3261 32.3589C9.05547 31.0882 8.34811 29.9355 8.05993 29.1889C8.88518 29.0055 9.61873 28.5601 10.2213 27.9182C11.0072 27.093 11.4133 25.9796 11.4133 24.8661V22.1808C11.4133 19.0108 12.4613 15.8801 14.4261 13.3912C17.2163 9.81516 21.3556 7.79789 25.8224 7.79789C29.6605 7.79789 33.2759 9.29119 36.0005 12.0027C38.7251 14.7274 40.2053 18.3427 40.2053 22.1808C40.2053 26.0189 38.712 29.6342 36.0005 32.3589C33.3021 35.0573 29.6474 36.5768 25.8224 36.5768ZM34.8085 18.5916C34.8085 19.5741 34.0094 20.3731 33.027 20.3731C32.0445 20.3731 31.2324 19.5741 31.2324 18.5916C31.2324 17.6092 32.0314 16.797 33.027 16.797C34.0094 16.797 34.8085 17.5961 34.8085 18.5916ZM24.0016 18.5916C24.0016 19.5741 23.2026 20.3731 22.2202 20.3731C21.2377 20.3731 20.4256 19.5741 20.4256 18.5916C20.4256 17.6092 21.2246 16.797 22.2202 16.797C23.2026 16.797 24.0016 17.5961 24.0016 18.5916ZM22.7703 24.4732C22.6262 24.1719 22.2856 23.9492 21.9451 23.9492C21.2901 23.9492 20.8578 24.6172 21.1198 25.2198C22.2725 27.6432 24.7352 29.3592 27.6432 29.3592C30.5512 29.3592 33.0139 27.6825 34.1666 25.2198C34.4286 24.6303 34.0225 23.9492 33.3414 23.9492H33.3021C32.9615 23.9492 32.6733 24.1326 32.5161 24.4732C31.6647 26.2939 29.7915 27.5646 27.6301 27.5646C25.495 27.5646 23.6349 26.2939 22.7703 24.4732Z"/></g></g></svg>

<svg xmlns="http://www.w3.org/2000/svg" fill="none" aria-hidden="true" viewBox="0 0 48 48"><path fill="#fff" d="M25.822 36.577h-3.68c-.407-2.044-2.24-3.616-4.402-3.616a4.56 4.56 0 0 0-3.798 2.044v.04a13.394 13.394 0 0 1-3.616-2.686c-1.27-1.27-1.978-2.424-2.266-3.17.825-.184 1.559-.629 2.161-1.27.786-.826 1.192-1.94 1.192-3.053v-2.685c0-3.17 1.048-6.301 3.013-8.79 2.79-3.576 6.93-5.593 11.396-5.593a14.34 14.34 0 0 1 10.179 4.205c2.724 2.724 4.204 6.34 4.204 10.178a14.34 14.34 0 0 1-4.204 10.178 14.385 14.385 0 0 1-10.179 4.218Z"/><path fill="#000" d="M42 22.168a16.06 16.06 0 0 0-4.729-11.436 16.327 16.327 0 0 0-11.436-4.729c-4.951 0-9.575 2.24-12.745 6.222-2.28 2.87-3.471 6.406-3.471 10.06v2.594c0 1.35-.93 2.607-2.79 2.725-.446.04-.826.34-.826.786-.078 1.231 1.232 3.471 3.013 5.253 1.232 1.27 2.685 2.279 4.244 3.052a4.467 4.467 0 0 0 .983 3.68 4.503 4.503 0 0 0 3.458 1.612c2.2 0 3.982-1.533 4.401-3.576h3.76c.484 2.54 3.13 4.283 5.96 3.314 2.463-.825 3.537-3.616 2.646-5.895.97-.629 1.9-1.375 2.75-2.2A15.986 15.986 0 0 0 42 22.168ZM25.822 36.577h-3.68c-.407-2.044-2.24-3.616-4.402-3.616a4.56 4.56 0 0 0-3.798 2.044v.04a13.394 13.394 0 0 1-3.616-2.686c-1.27-1.27-1.978-2.424-2.266-3.17.825-.183 1.559-.629 2.161-1.27.786-.826 1.192-1.94 1.192-3.053v-2.685c0-3.17 1.048-6.3 3.013-8.79 2.79-3.576 6.93-5.593 11.396-5.593a14.34 14.34 0 0 1 10.179 4.205c2.724 2.724 4.204 6.34 4.204 10.178a14.34 14.34 0 0 1-4.204 10.178 14.385 14.385 0 0 1-10.179 4.218Zm8.987-17.985c0 .982-.8 1.781-1.782 1.781a1.795 1.795 0 0 1-1.795-1.781c0-.983.8-1.795 1.795-1.795.982 0 1.782.8 1.782 1.795Zm-10.807 0c0 .982-.8 1.781-1.782 1.781a1.795 1.795 0 0 1-1.794-1.781c0-.983.799-1.795 1.794-1.795.983 0 1.782.8 1.782 1.795Zm-1.232 5.881a.953.953 0 0 0-.825-.524.903.903 0 0 0-.825 1.27c1.152 2.424 3.615 4.14 6.523 4.14a7.153 7.153 0 0 0 6.524-4.14.897.897 0 0 0-.826-1.27h-.039c-.34 0-.629.184-.786.524a5.395 5.395 0 0 1-4.886 3.092c-2.135 0-3.995-1.271-4.86-3.092Z"/></svg>
